img/pickOnMap.svg

<svg fill="none" height="24" viewBox="0 0 24 24" width="24" xmlns="http://www.w3.org/2000/svg"><path d="m11.7504 3.00458c-3.48625.12548-6.38249 2.91558-6.71708 6.47702-.06836.7123-.02878 1.4024.09354 2.0631 0 0 .01079.0775.04677.2251.10794.4945.26984.9743.47131 1.4246.70158 1.705 2.32419 4.5579 5.96516 7.6617.2231.1919.5505.1919.7771 0 3.641-3.1001 5.2636-5.953 5.9688-7.6654.2051-.4503.3634-.9264.4713-1.4246.0324-.1439.0468-.2251.0468-.2251.0827-.4429.1259-.8969.1259-1.3619 0-4.05226-3.2704-7.31845-7.2496-7.17452zm.2483 10.74702c-1.8781 0-3.39996-1.5611-3.39996-3.4876 0-1.92649 1.52186-3.48761 3.39996-3.48761 1.878 0 3.3999 1.56112 3.3999 3.48761 0 1.9265-1.5219 3.4876-3.3999 3.4876z" fill="#66c4ff"/></svg>

<svg width="24" height="24" viewBox="0 0 24 24" fill="none" xmlns="http://www.w3.org/2000/svg">
<path d="M11.7504 3.00458C8.26415 3.13006 5.36791 5.92016 5.03332 9.4816C4.96496 10.1939 5.00454 10.884 5.12686 11.5447C5.12686 11.5447 5.13765 11.6222 5.17363 11.7698C5.28157 12.2643 5.44347 12.7441 5.64494 13.1944C6.34652 14.8994 7.96913 17.7523 11.6101 20.8561C11.8332 21.048 12.1606 21.048 12.3872 20.8561C16.0282 17.756 17.6508 14.9031 18.356 13.1907C18.5611 12.7404 18.7194 12.2643 18.8273 11.7661C18.8597 11.6222 18.8741 11.541 18.8741 11.541C18.9568 11.0981 19 10.6441 19 10.1791C19 6.12684 15.7296 2.86065 11.7504 3.00458ZM11.9987 13.7516C10.1206 13.7516 8.59874 12.1905 8.59874 10.264C8.59874 8.33751 10.1206 6.77639 11.9987 6.77639C13.8767 6.77639 15.3986 8.33751 15.3986 10.264C15.3986 12.1905 13.8767 13.7516 11.9987 13.7516Z" fill="#66C4FF"/>
</svg>
